src/img/svg/adv1.svg

<svg width="22" height="19" viewBox="0 0 22 19" fill="none" xmlns="http://www.w3.org/2000/svg">
<path d="M16.8342 6.10435C16.5684 6.10435 16.3423 6.01227 16.156 5.8281C15.9689 5.64321 15.8754 5.41463 15.8754 5.14235C15.8754 5.0138 15.9 4.89246 15.9491 4.77835C15.9982 4.66424 16.0661 4.56385 16.1527 4.47719C16.3593 4.26991 16.8056 4.04819 17.4917 3.81202L18.5209 3.45885C18.4046 3.83224 18.2833 4.17891 18.1569 4.49885C18.063 4.76319 17.9554 5.02535 17.8341 5.28535C17.7135 5.54535 17.6051 5.72374 17.5091 5.82052C17.4188 5.9108 17.3152 5.98085 17.1982 6.03069C17.0804 6.0798 16.9591 6.10435 16.8342 6.10435ZM2.70423 18.1456C2.22251 18.1456 1.81121 17.9744 1.47032 17.6321C1.12943 17.2898 0.958984 16.8777 0.958984 16.396V3.47835C0.958984 2.99663 1.13051 2.5846 1.47357 2.24227C1.81662 1.89921 2.22865 1.72769 2.70965 1.72769H7.96382C8.44554 1.72769 8.85685 1.89921 9.19773 2.24227C9.53862 2.5846 9.70907 2.99627 9.70907 3.47727V11.7724C9.88529 11.6481 10.0846 11.5402 10.3071 11.4484C10.5288 11.3574 10.7877 11.3119 11.0838 11.3119C11.767 11.3119 12.3473 11.5506 12.8247 12.028C13.3028 12.5061 13.5419 13.0868 13.5419 13.77V15.6864C13.5419 16.0764 13.6737 16.4029 13.9373 16.6658C14.2009 16.9287 14.5277 17.0605 14.9177 17.0612C15.3077 17.0612 15.6342 16.9294 15.8971 16.6658C16.1607 16.4022 16.2925 16.0757 16.2925 15.6864V10.4778H15.3337V9.2471C14.4837 8.87299 13.7922 8.32013 13.2592 7.58852C12.7254 6.85691 12.4586 6.04224 12.4586 5.14452C12.4586 3.92396 12.885 2.88974 13.738 2.04185C14.5909 1.19396 15.623 0.77002 16.8342 0.77002C18.0547 0.77002 19.0889 1.19396 19.9368 2.04185C20.7847 2.88974 21.2087 3.92396 21.2087 5.14452C21.2087 6.04224 20.9422 6.85691 20.4092 7.58852C19.8754 8.32013 19.1835 8.87263 18.3335 9.24602V10.4778H17.3758V15.6864C17.3758 16.3697 17.1371 16.95 16.6597 17.4274C16.1816 17.9055 15.6017 18.1445 14.9199 18.1445C14.2374 18.1445 13.6567 17.9055 13.1779 17.4274C12.6983 16.95 12.4586 16.3697 12.4586 15.6864V13.7689C12.4586 13.3797 12.3268 13.0532 12.0632 12.7896C11.7995 12.526 11.4731 12.3949 11.0838 12.3964C10.6938 12.3964 10.3674 12.5278 10.1045 12.7907C9.8416 13.0543 9.71015 13.3811 9.71015 13.7711V16.396C9.71015 16.877 9.53862 17.2887 9.19557 17.631C8.85251 17.9741 8.44012 18.1456 7.9584 18.1456H2.70423ZM16.8363 8.43785C17.7514 8.43785 18.5285 8.11755 19.1677 7.47694C19.8061 6.83632 20.1253 6.05849 20.1253 5.14344C20.1253 4.22838 19.805 3.45127 19.1644 2.8121C18.5238 2.17366 17.746 1.85444 16.8309 1.85444C15.9158 1.85444 15.1391 2.17474 14.5007 2.81535C13.8615 3.45596 13.5419 4.23344 13.5419 5.14777C13.5419 6.06283 13.8622 6.83994 14.5028 7.4791C15.1434 8.11827 15.9213 8.43785 16.8363 8.43785ZM2.70965 17.0623H7.9584C8.1534 17.0623 8.31337 16.9998 8.43832 16.8749C8.56326 16.7499 8.62573 16.5903 8.62573 16.396V13.7289L6.70823 15.6464V14.1059L8.62573 12.1894V8.93835L6.70823 10.8559V9.31535L8.62573 7.39894V4.14569L6.70823 6.06319V4.5216L8.2314 2.99844C8.17579 2.9291 8.11007 2.88071 8.03424 2.85327C7.95768 2.8251 7.86379 2.81102 7.75257 2.81102H2.91548C2.80426 2.81102 2.71037 2.8251 2.63382 2.85327C2.55726 2.88071 2.49118 2.9291 2.43557 2.99844L3.95873 4.5216V6.06102L2.04123 4.1446V7.39677L3.95873 9.31427V10.8526L2.04123 8.93619V12.1884L3.95873 14.1059V15.6442L2.04123 13.7278V16.3949C2.04123 16.5899 2.10407 16.7495 2.22973 16.8738C2.3554 16.998 2.51501 17.0605 2.70857 17.0612" fill="#435DFF"/>
</svg>

<svg width="22" height="19" viewBox="0 0 22 19" fill="none" xmlns="http://www.w3.org/2000/svg"><path d="M16.834 6.104a.929.929 0 0 1-.678-.276.926.926 0 0 1-.28-.686c0-.128.024-.25.073-.364a.957.957 0 0 1 .204-.3c.206-.208.653-.43 1.339-.666l1.029-.353c-.116.373-.238.72-.364 1.04a8.93 8.93 0 0 1-.323.786c-.12.26-.229.439-.325.536a.937.937 0 0 1-.675.284ZM2.704 18.146c-.481 0-.893-.172-1.234-.514a1.689 1.689 0 0 1-.511-1.236V3.478c0-.481.172-.893.515-1.236a1.686 1.686 0 0 1 1.236-.514h5.254c.482 0 .893.171 1.234.514.34.343.511.754.511 1.235v8.295c.176-.124.376-.232.598-.324.222-.09.48-.136.777-.136a2.37 2.37 0 0 1 1.74.716 2.37 2.37 0 0 1 .718 1.742v1.916c0 .39.132.717.395.98.264.263.59.395.98.395s.717-.132.98-.395a1.33 1.33 0 0 0 .396-.98v-5.208h-.96v-1.23a5.017 5.017 0 0 1-2.074-1.66 4.049 4.049 0 0 1-.8-2.443c0-1.221.426-2.255 1.279-3.103.853-.848 1.885-1.272 3.096-1.272 1.22 0 2.255.424 3.103 1.272.848.848 1.272 1.882 1.272 3.103 0 .897-.267 1.712-.8 2.444a5.018 5.018 0 0 1-2.075 1.657v1.232h-.958v5.208a2.37 2.37 0 0 1-.716 1.741 2.369 2.369 0 0 1-1.74.718 2.374 2.374 0 0 1-1.742-.718 2.364 2.364 0 0 1-.72-1.74v-1.918c0-.39-.131-.716-.395-.98a1.323 1.323 0 0 0-.98-.393c-.39 0-.716.132-.979.395-.262.263-.394.59-.394.98v2.625c0 .481-.171.893-.514 1.235a1.687 1.687 0 0 1-1.238.515H2.704Zm14.132-9.708c.915 0 1.693-.32 2.332-.961.638-.64.957-1.419.957-2.334s-.32-1.692-.96-2.33c-.641-.64-1.419-.959-2.334-.959s-1.692.32-2.33.961c-.64.641-.96 1.418-.96 2.333 0 .915.321 1.692.962 2.331.64.64 1.418.959 2.333.959ZM2.71 17.062h5.248a.65.65 0 0 0 .48-.187.649.649 0 0 0 .188-.479v-2.667l-1.918 1.917v-1.54l1.918-1.917V8.94l-1.918 1.917v-1.54L8.626 7.4V4.146L6.708 6.063V4.522l1.523-1.524a.445.445 0 0 0-.197-.145.82.82 0 0 0-.281-.042H2.915a.82.82 0 0 0-.281.042.444.444 0 0 0-.198.145l1.523 1.524V6.06L2.04 4.145v3.252l1.92 1.917v1.539L2.04 8.936v3.252l1.918 1.918v1.538L2.04 13.728v2.667c0 .195.063.355.189.479a.656.656 0 0 0 .479.187" fill="#435DFF"/></svg>
